src/lib/runemarks/svg/factions-chaos-bladeborn-ephilims-pandaemonium.svg

<!-- Generated by IcoMoon.io -->
<svg version="1.1" xmlns="http://www.w3.org/2000/svg" width="1024" height="1024" viewBox="0 0 1024 1024">
<title></title>
<g id="icomoon-ignore">
</g>
<path  d="M543.19 16.208c-7.439 37.19-20.626 48.995-54.729 48.995-23.795 0-42.66 5.737-81.404 24.751-70.777 34.738-86.981 57.554-30.831 43.413 130.099-32.758 252.808 179.098 159.895 276.063-52.962 55.274-126.126 55.402-152.417 0.273-5.264-11.041-12.372-20.076-15.793-20.076s-6.345-6.197-6.497-13.773-3.702-21.802-7.892-31.615c-8.084-18.942 2.551-64.696 23.951-103.052 7.323-13.122 7.629-16.799 1.396-16.681-15.718 0.298-66.064 43.020-77.793 66.011-6.57 12.877-16.277 27.009-21.573 31.404s-9.629 16.958-9.629 27.917c0 26.565-13.526 37.836-34.135 28.446-26.66-12.146-27.547-5.897-5.517 38.888 31.967 64.985 4.828 115.982-46.971 88.262-6.801-3.64-13.976-5.008-15.946-3.038-5.721 5.722 23.978 34.265 49.009 47.102 17.238 8.84 22.954 15.57 22.954 27.031 0 8.395 3.444 20.925 7.652 27.847 6.73 11.070 5.524 14.302-9.995 26.811-18.18 14.653-11.148 27.189 15.713 28.020 19.933 0.616 51.096 37.341 63.145 74.419 15.689 48.276 23.667 50.268 33.068 8.262 8.217-36.723 28.005-58.445 53.239-58.445 23.988 0 32.59 36.174 17.721 74.506-6.193 15.966 7.236 34.427 35.434 48.706 14.194 7.188 35.922 23.036 48.278 35.216 12.359 12.181 27.837 26.608 34.398 32.059 8.563 7.116 13.17 21.497 16.326 50.956 5.399 50.426-0.897 59.503-48.686 70.197-39.358 8.807-49.58 18.903-19.143 18.903 11.763 0 28.816 2.826 37.895 6.278 24.545 9.331 37.924 2.182 61.461-32.841 11.676-17.374 28.011-40.947 36.302-52.386 22.095-30.492 17.848-80.601-7.533-88.886-15.518-5.064-35.884-38.913-40.42-67.177-2.103-13.108-9.443-29.813-16.309-37.123-15.576-16.579-16.063-41.030-1.084-54.584 37.311-33.769 96.923-14.667 88.363 28.313-7.231 36.303 35.449-4.959 56.21-54.344 10.893-25.91 16.273-28.125 47.823-19.685 41.26 11.035 98.972-28.19 59.777-40.628-29.597-9.395-23.054-65.814 11.613-100.133 31.592-31.279 52.153-99.716 22.584-75.178-40.755 33.825-77.963-66.817-49.997-135.237 14.297-34.978 11.861-38.41-18.319-25.802-45.068 18.83-109.32-52.589-94.602-105.155 9.072-32.405 4.696-41.087-15.964-31.674-20.694 9.429-94.402-59.89-94.402-88.783 0-36.595-20.371-54.007-26.621-22.756z"></path>
</svg>

<?xml version="1.0" encoding="UTF-8" standalone="no"?>
<!DOCTYPE svg PUBLIC "-//W3C//DTD SVG 1.1//EN" "http://www.w3.org/Graphics/SVG/1.1/DTD/svg11.dtd">
<svg width="100%" height="100%" viewBox="0 0 1024 1024" version="1.1" xmlns="http://www.w3.org/2000/svg" xmlns:xlink="http://www.w3.org/1999/xlink" xml:space="preserve" xmlns:serif="http://www.serif.com/" style="fill-rule:evenodd;clip-rule:evenodd;stroke-linejoin:round;stroke-miterlimit:2;">
    <path d="M543.19,16.208C535.751,53.398 522.564,65.203 488.461,65.203C464.666,65.203 445.801,70.94 407.057,89.954C336.28,124.692 320.076,147.508 376.226,133.367C506.325,100.609 629.034,312.465 536.121,409.43C483.159,464.704 409.995,464.832 383.704,409.703C378.44,398.662 371.332,389.627 367.911,389.627C364.49,389.627 361.566,383.43 361.414,375.854C361.262,368.278 357.712,354.052 353.522,344.239C345.438,325.297 356.073,279.543 377.473,241.187C384.796,228.065 385.102,224.388 378.869,224.506C363.151,224.804 312.805,267.526 301.076,290.517C294.506,303.394 284.799,317.526 279.503,321.921C274.207,326.316 269.874,338.879 269.874,349.838C269.874,376.403 256.348,387.674 235.739,378.284C209.079,366.138 208.192,372.387 230.222,417.172C262.189,482.157 235.05,533.154 183.251,505.434C176.45,501.794 169.275,500.426 167.305,502.396C161.584,508.118 191.283,536.661 216.314,549.498C233.552,558.338 239.268,565.068 239.268,576.529C239.268,584.924 242.712,597.454 246.92,604.376C253.65,615.446 252.444,618.678 236.925,631.187C218.745,645.84 225.777,658.376 252.638,659.207C272.571,659.823 303.734,696.548 315.783,733.626C331.472,781.902 339.45,783.894 348.851,741.888C357.068,705.165 376.856,683.443 402.09,683.443C426.078,683.443 434.68,719.617 419.811,757.949C413.618,773.915 427.047,792.376 455.245,806.655C469.439,813.843 491.167,829.691 503.523,841.871C515.882,854.052 531.36,868.479 537.921,873.93C546.484,881.046 551.091,895.427 554.247,924.886C559.646,975.312 553.35,984.389 505.561,995.083C466.203,1003.89 455.981,1013.99 486.418,1013.99C498.181,1013.99 515.234,1016.81 524.313,1020.26C548.858,1029.6 562.237,1022.45 585.774,987.423C597.45,970.049 613.785,946.476 622.076,935.037C644.171,904.545 639.924,854.436 614.543,846.151C599.025,841.087 578.659,807.238 574.123,778.974C572.02,765.866 564.68,749.161 557.814,741.851C542.238,725.272 541.751,700.821 556.73,687.267C594.041,653.498 653.653,672.6 645.093,715.58C637.862,751.883 680.542,710.621 701.303,661.236C712.196,635.326 717.576,633.111 749.126,641.551C790.386,652.586 848.098,613.361 808.903,600.923C779.306,591.528 785.849,535.109 820.516,500.79C852.108,469.511 872.669,401.074 843.1,425.612C802.345,459.437 765.137,358.795 793.103,290.375C807.4,255.397 804.964,251.965 774.784,264.573C729.716,283.403 665.464,211.984 680.182,159.418C689.254,127.013 684.878,118.331 664.218,127.744C643.524,137.173 569.816,67.854 569.816,38.961C569.816,2.366 549.445,-15.046 543.195,16.205L543.19,16.208Z" style="fill-rule:nonzero;"/>
</svg>
